images/blender_logo.svg

<svg xmlns="http://www.w3.org/2000/svg" xml:space="preserve" style="fill-rule:evenodd;clip-rule:evenodd;stroke-linejoin:round;stroke-miterlimit:2" viewBox="0 0 2048 550"><path d="M0 51.474h2048v658.524H0z" style="fill:none" transform="matrix(1 0 0 .8352 0 -42.99)"/><path d="M243.13-333.715c.106-1.891 1.032-3.557 2.429-4.738 1.37-1.16 3.214-1.869 5.226-1.869 2.01 0 3.854.709 5.225 1.869 1.396 1.181 2.322 2.847 2.429 4.736.106 1.943-.675 3.748-2.045 5.086-1.397 1.361-3.384 2.215-5.609 2.215s-4.216-.854-5.612-2.215c-1.371-1.338-2.15-3.143-2.043-5.084" style="fill:#fff;fill-rule:nonzero" transform="matrix(21.63443 0 0 21.63442 -5000.82 7520.685)"/><path d="M243.13-333.715c.106-1.891 1.032-3.557 2.429-4.738 1.37-1.16 3.214-1.869 5.226-1.869 2.01 0 3.854.709 5.225 1.869 1.396 1.181 2.322 2.847 2.429 4.736.106 1.943-.675 3.748-2.045 5.086-1.397 1.361-3.384 2.215-5.609 2.215s-4.216-.854-5.612-2.215c-1.371-1.338-2.15-3.143-2.043-5.084" style="fill:#265787;fill-rule:nonzero" transform="matrix(11.10076 0 0 11.10075 -2359.125 4009.113)"/><path d="M230.94-329.894c.013.74.249 2.178.603 3.301.744 2.377 2.006 4.576 3.762 6.514 1.802 1.992 4.021 3.592 6.584 4.728 2.694 1.193 5.613 1.801 8.645 1.796a21.2 21.2 0 0 0 8.64-1.826c2.563-1.147 4.78-2.754 6.579-4.747 1.755-1.946 3.015-4.149 3.761-6.526.375-1.201.612-2.42.707-3.643a16.6 16.6 0 0 0-.117-3.618 16.8 16.8 0 0 0-2.399-6.565 18.3 18.3 0 0 0-4.376-4.825l.004-.003-17.711-13.599q-.022-.019-.046-.036c-1.162-.892-3.116-.889-4.394.005-1.292.904-1.44 2.399-.29 3.342l-.005.005 7.387 6.007-22.515.024h-.03c-1.861.002-3.65 1.223-4.004 2.766-.364 1.572.9 2.876 2.835 2.883l-.003.007 11.412-.022-20.364 15.631-.078.058c-1.921 1.471-2.542 3.917-1.332 5.465 1.228 1.574 3.839 1.577 5.78.009l11.114-9.096s-.162 1.228-.149 1.965m28.559 4.112c-2.29 2.333-5.496 3.656-8.965 3.663-3.474.006-6.68-1.305-8.97-3.634a10.7 10.7 0 0 1-2.448-3.832 9.95 9.95 0 0 1-.562-4.282 10.1 10.1 0 0 1 1.227-4.031 11.1 11.1 0 0 1 2.724-3.239c2.226-1.814 5.06-2.796 8.024-2.8 2.967-.004 5.799.969 8.027 2.777a11.1 11.1 0 0 1 2.721 3.229 10.1 10.1 0 0 1 1.232 4.029 10 10 0 0 1-.564 4.279 10.7 10.7 0 0 1-2.446 3.841" style="fill:#ea7600;fill-rule:nonzero" transform="matrix(11.10076 0 0 11.10075 -2359.125 4009.113)"/><path d="M364.467-333.746c.171-1.908 1.646-3.118 3.899-3.118 2.256 0 3.73 1.21 3.901 3.118zm7.569 4.711c-.577 1.414-1.937 2.251-3.784 2.251-2.313 0-3.87-1.444-3.933-3.725h13.297v-.671c0-5.714-3.354-8.925-9.364-8.925-5.836 0-9.365 3.241-9.365 8.324 0 5.114 3.584 8.35 9.365 8.35 3.469 0 6.159-1.189 7.817-3.279zm-66.568-4.702c.176-1.908 1.651-3.118 3.906-3.118 2.252 0 3.726 1.21 3.899 3.118zm7.574 4.711c-.578 1.418-1.937 2.255-3.788 2.255-2.309 0-3.87-1.448-3.931-3.73h13.294v-.667c0-5.717-3.353-8.929-9.363-8.929-5.839 0-9.361 3.242-9.361 8.325 0 5.114 3.582 8.35 9.361 8.35 3.468 0 6.16-1.185 7.821-3.278zm-19.135-14.534h4.795v19.617h-4.795zm25.903 5.212h4.822v1.168c1.707-1.822 3.757-2.743 6.069-2.743 2.663 0 4.679.921 5.72 2.489.869 1.295.926 2.858.926 4.912v8.579h-4.829v-7.538c0-3.128-.629-4.572-3.375-4.572-2.775 0-4.511 1.653-4.511 4.428v7.682h-4.822zm33.066 6.81c0 2.685-1.794 4.446-4.57 4.446-2.778 0-4.572-1.701-4.572-4.415 0-2.754 1.77-4.454 4.572-4.454 2.776 0 4.57 1.73 4.57 4.423m0-6.157c-1.219-1.307-2.983-2.024-5.435-2.024-5.29 0-8.902 3.262-8.902 8.151 0 4.793 3.587 8.146 8.815 8.146 2.397 0 4.157-.606 5.522-1.965v1.444h4.825v-20.861l-4.825 1.244zm-69.929 1.734c2.804 0 4.567 1.7 4.567 4.454 0 2.714-1.791 4.415-4.567 4.415-2.774 0-4.566-1.761-4.566-4.446 0-2.693 1.792-4.423 4.566-4.423m-4.566-7.599-4.827-1.244v20.861h4.827v-1.444c1.358 1.359 3.121 1.965 5.52 1.965 5.231 0 8.813-3.353 8.813-8.146 0-4.889-3.613-8.151-8.9-8.151-2.457 0-4.22.717-5.433 2.024zm100.425 19.617v-14.405h4.825v.89c1.445-1.74 2.974-2.606 4.713-2.606.345 0 .779.056 1.356.113v4.107c-.465-.061-.983-.061-1.533-.061-2.805 0-4.536 1.85-4.536 4.996v6.966z" style="fill:#265787;fill-rule:nonzero" transform="matrix(11.10076 0 0 11.10075 -2359.125 4009.113)"/><text x="2213.4" y="784.854" style="font-family:&quot;OpenSans-Semibold&quot;,&quot;Open Sans&quot;,sans-serif;font-weight:600;font-size:50px;fill:#236192" transform="translate(-516.509 -646.78)scale(1.13328)">®</text></svg>

<?xml version="1.0" encoding="UTF-8" standalone="no"?>
<!DOCTYPE svg PUBLIC "-//W3C//DTD SVG 1.1//EN" "http://www.w3.org/Graphics/SVG/1.1/DTD/svg11.dtd">
<svg width="100%" height="100%" viewBox="0 0 2048 550" version="1.1" xmlns="http://www.w3.org/2000/svg" xmlns:xlink="http://www.w3.org/1999/xlink" xml:space="preserve" xmlns:serif="http://www.serif.com/" style="fill-rule:evenodd;clip-rule:evenodd;stroke-linejoin:round;stroke-miterlimit:2;">
    <g transform="matrix(1,0,0,1,-7.78614,0)">
        <g id="blender_logo_no_socket" transform="matrix(1,0,0,0.835201,7.78614,-42.9907)">
            <rect x="0" y="51.474" width="2048" height="658.524" style="fill:none;"/>
            <g transform="matrix(4.16667,0,0,4.98882,-191.107,2195.04)">
                <g transform="matrix(5.19226,0,0,5.19226,-1154.33,1375.29)">
                    <path d="M243.13,-333.715C243.236,-335.606 244.162,-337.272 245.559,-338.453C246.929,-339.613 248.773,-340.322 250.785,-340.322C252.795,-340.322 254.639,-339.613 256.01,-338.453C257.406,-337.272 258.332,-335.606 258.439,-333.717C258.545,-331.774 257.764,-329.969 256.394,-328.631C254.997,-327.27 253.01,-326.416 250.785,-326.416C248.56,-326.416 246.569,-327.27 245.173,-328.631C243.802,-329.969 243.023,-331.774 243.13,-333.715Z" style="fill:white;fill-rule:nonzero;"/>
                </g>
                <g transform="matrix(2.66418,0,0,2.66418,-520.324,532.513)">
                    <path d="M243.13,-333.715C243.236,-335.606 244.162,-337.272 245.559,-338.453C246.929,-339.613 248.773,-340.322 250.785,-340.322C252.795,-340.322 254.639,-339.613 256.01,-338.453C257.406,-337.272 258.332,-335.606 258.439,-333.717C258.545,-331.774 257.764,-329.969 256.394,-328.631C254.997,-327.27 253.01,-326.416 250.785,-326.416C248.56,-326.416 246.569,-327.27 245.173,-328.631C243.802,-329.969 243.023,-331.774 243.13,-333.715Z" style="fill:rgb(38,87,135);fill-rule:nonzero;"/>
                </g>
                <g transform="matrix(2.66418,0,0,2.66418,-520.324,532.513)">
                    <path d="M230.94,-329.894C230.953,-329.154 231.189,-327.716 231.543,-326.593C232.287,-324.216 233.549,-322.017 235.305,-320.079C237.107,-318.087 239.326,-316.487 241.889,-315.351C244.583,-314.158 247.502,-313.55 250.534,-313.555C253.561,-313.559 256.48,-314.179 259.174,-315.381C261.737,-316.528 263.954,-318.135 265.753,-320.128C267.508,-322.074 268.768,-324.277 269.514,-326.654C269.889,-327.855 270.126,-329.074 270.221,-330.297C270.314,-331.502 270.275,-332.709 270.104,-333.915C269.77,-336.265 268.957,-338.47 267.705,-340.48C266.56,-342.327 265.084,-343.944 263.329,-345.305L263.333,-345.308L245.622,-358.907C245.606,-358.919 245.593,-358.932 245.576,-358.943C244.414,-359.835 242.46,-359.832 241.182,-358.938C239.89,-358.034 239.742,-356.539 240.892,-355.596L240.887,-355.591L248.274,-349.584L225.759,-349.56L225.729,-349.56C223.868,-349.558 222.079,-348.337 221.725,-346.794C221.361,-345.222 222.625,-343.918 224.56,-343.911L224.557,-343.904L235.969,-343.926L215.605,-328.295C215.579,-328.276 215.551,-328.256 215.527,-328.237C213.606,-326.766 212.985,-324.32 214.195,-322.772C215.423,-321.198 218.034,-321.195 219.975,-322.763L231.089,-331.859C231.089,-331.859 230.927,-330.631 230.94,-329.894ZM259.499,-325.782C257.209,-323.449 254.003,-322.126 250.534,-322.119C247.06,-322.113 243.854,-323.424 241.564,-325.753C240.445,-326.888 239.623,-328.194 239.116,-329.585C238.619,-330.952 238.426,-332.403 238.554,-333.867C238.675,-335.298 239.101,-336.663 239.781,-337.898C240.449,-339.112 241.369,-340.209 242.505,-341.137C244.731,-342.951 247.565,-343.933 250.529,-343.937C253.496,-343.941 256.328,-342.968 258.556,-341.16C259.69,-340.236 260.609,-339.143 261.277,-337.931C261.96,-336.697 262.383,-335.337 262.509,-333.902C262.635,-332.44 262.442,-330.991 261.945,-329.623C261.437,-328.228 260.618,-326.922 259.499,-325.782Z" style="fill:rgb(234,118,0);fill-rule:nonzero;"/>
                </g>
                <g transform="matrix(2.66418,0,0,2.66418,-520.324,532.513)">
                    <path d="M364.467,-333.746C364.638,-335.654 366.113,-336.864 368.366,-336.864C370.622,-336.864 372.096,-335.654 372.267,-333.746L364.467,-333.746ZM372.036,-329.035C371.459,-327.621 370.099,-326.784 368.252,-326.784C365.939,-326.784 364.382,-328.228 364.319,-330.509L377.616,-330.509L377.616,-331.18C377.616,-336.894 374.262,-340.105 368.252,-340.105C362.416,-340.105 358.887,-336.864 358.887,-331.781C358.887,-326.667 362.471,-323.431 368.252,-323.431C371.721,-323.431 374.411,-324.62 376.069,-326.71L372.036,-329.035Z" style="fill:rgb(38,87,135);fill-rule:nonzero;"/>
                </g>
                <g transform="matrix(2.66418,0,0,2.66418,-520.324,532.513)">
                    <path d="M305.468,-333.737C305.644,-335.645 307.119,-336.855 309.374,-336.855C311.626,-336.855 313.1,-335.645 313.273,-333.737L305.468,-333.737ZM313.042,-329.026C312.464,-327.608 311.105,-326.771 309.254,-326.771C306.945,-326.771 305.384,-328.219 305.323,-330.501L318.617,-330.501L318.617,-331.168C318.617,-336.885 315.264,-340.097 309.254,-340.097C303.415,-340.097 299.893,-336.855 299.893,-331.772C299.893,-326.658 303.475,-323.422 309.254,-323.422C312.722,-323.422 315.414,-324.607 317.075,-326.7L313.042,-329.026Z" style="fill:rgb(38,87,135);fill-rule:nonzero;"/>
                </g>
                <g transform="matrix(2.66418,0,0,2.66418,-520.324,532.513)">
                    <rect x="293.907" y="-343.56" width="4.795" height="19.617" style="fill:rgb(38,87,135);fill-rule:nonzero;"/>
                </g>
                <g transform="matrix(2.66418,0,0,2.66418,-520.324,532.513)">
                    <path d="M319.81,-338.348L324.632,-338.348L324.632,-337.18C326.339,-339.002 328.389,-339.923 330.701,-339.923C333.364,-339.923 335.38,-339.002 336.421,-337.434C337.29,-336.139 337.347,-334.576 337.347,-332.522L337.347,-323.943L332.518,-323.943L332.518,-331.481C332.518,-334.609 331.889,-336.053 329.143,-336.053C326.368,-336.053 324.632,-334.4 324.632,-331.625L324.632,-323.943L319.81,-323.943L319.81,-338.348Z" style="fill:rgb(38,87,135);fill-rule:nonzero;"/>
                </g>
                <g transform="matrix(2.66418,0,0,2.66418,-520.324,532.513)">
                    <path d="M352.876,-331.538C352.876,-328.853 351.082,-327.092 348.306,-327.092C345.528,-327.092 343.734,-328.793 343.734,-331.507C343.734,-334.261 345.504,-335.961 348.306,-335.961C351.082,-335.961 352.876,-334.231 352.876,-331.538ZM352.876,-337.695C351.657,-339.002 349.893,-339.719 347.441,-339.719C342.151,-339.719 338.539,-336.457 338.539,-331.568C338.539,-326.775 342.126,-323.422 347.354,-323.422C349.751,-323.422 351.511,-324.028 352.876,-325.387L352.876,-323.943L357.701,-323.943L357.701,-344.804L352.876,-343.56L352.876,-337.695Z" style="fill:rgb(38,87,135);fill-rule:nonzero;"/>
                </g>
                <g transform="matrix(2.66418,0,0,2.66418,-520.324,532.513)">
                    <path d="M282.947,-335.961C285.751,-335.961 287.514,-334.261 287.514,-331.507C287.514,-328.793 285.723,-327.092 282.947,-327.092C280.173,-327.092 278.381,-328.853 278.381,-331.538C278.381,-334.231 280.173,-335.961 282.947,-335.961ZM278.381,-343.56L273.554,-344.804L273.554,-323.943L278.381,-323.943L278.381,-325.387C279.739,-324.028 281.502,-323.422 283.901,-323.422C289.132,-323.422 292.714,-326.775 292.714,-331.568C292.714,-336.457 289.101,-339.719 283.814,-339.719C281.357,-339.719 279.594,-339.002 278.381,-337.695L278.381,-343.56Z" style="fill:rgb(38,87,135);fill-rule:nonzero;"/>
                </g>
                <g transform="matrix(2.66418,0,0,2.66418,-520.324,532.513)">
                    <path d="M378.806,-323.943L378.806,-338.348L383.631,-338.348L383.631,-337.458C385.076,-339.198 386.605,-340.064 388.344,-340.064C388.689,-340.064 389.123,-340.008 389.7,-339.951L389.7,-335.844C389.235,-335.905 388.717,-335.905 388.167,-335.905C385.362,-335.905 383.631,-334.055 383.631,-330.909L383.631,-323.943L378.806,-323.943Z" style="fill:rgb(38,87,135);fill-rule:nonzero;"/>
                </g>
                <g transform="matrix(0.271988,0,0,0.271988,-78.0964,-584.901)">
                    <text x="2213.4px" y="784.854px" style="font-family:'OpenSans-Semibold', 'Open Sans', sans-serif;font-weight:600;font-size:50px;fill:rgb(35,97,146);">®</text>
                </g>
            </g>
        </g>
    </g>
</svg>
